images/filter/range.svg

<svg width="109" height="94" viewBox="0 0 109 94" fill="none" xmlns="http://www.w3.org/2000/svg">
<g filter="url(#filter0_d_162_3047)">
<path d="M30 38C30 36.8954 30.8954 36 32 36H41.7865C42.0915 36 42.3924 35.9303 42.6662 35.7961L53.6203 30.4309C54.1753 30.1591 54.8247 30.1591 55.3797 30.4309L66.3338 35.7961C66.6076 35.9303 66.9085 36 67.2135 36H77C78.1046 36 79 36.8954 79 38V62C79 63.1046 78.1046 64 77 64H32C30.8954 64 30 63.1046 30 62V38Z" fill="white"/>
</g>
<defs>
<filter id="filter0_d_162_3047" x="0" y="0.227051" width="109" height="93.7729" filterUnits="userSpaceOnUse" color-interpolation-filters="sRGB">
<feFlood flood-opacity="0" result="BackgroundImageFix"/>
<feColorMatrix in="SourceAlpha" type="matrix" values="0 0 0 0 0 0 0 0 0 0 0 0 0 0 0 0 0 0 127 0" result="hardAlpha"/>
<feOffset/>
<feGaussianBlur stdDeviation="15"/>
<feColorMatrix type="matrix" values="0 0 0 0 0.168627 0 0 0 0 0.164706 0 0 0 0 0.156863 0 0 0 0.08 0"/>
<feBlend mode="normal" in2="BackgroundImageFix" result="effect1_dropShadow_162_3047"/>
<feBlend mode="normal" in="SourceGraphic" in2="effect1_dropShadow_162_3047" result="shape"/>
</filter>
</defs>
</svg>

<svg width="109" height="94" fill="none" xmlns="http://www.w3.org/2000/svg"><g filter="url(#a)"><path d="M30 38a2 2 0 0 1 2-2h9.786c.306 0 .606-.07.88-.204l10.954-5.365a2 2 0 0 1 1.76 0l10.954 5.365c.274.134.575.204.88.204H77a2 2 0 0 1 2 2v24a2 2 0 0 1-2 2H32a2 2 0 0 1-2-2V38z" fill="#fff"/></g><defs><filter id="a" x="0" y=".227" width="109" height="93.773" filterUnits="userSpaceOnUse" color-interpolation-filters="sRGB"><feFlood flood-opacity="0" result="BackgroundImageFix"/><feColorMatrix in="SourceAlpha" values="0 0 0 0 0 0 0 0 0 0 0 0 0 0 0 0 0 0 127 0" result="hardAlpha"/><feOffset/><feGaussianBlur stdDeviation="15"/><feColorMatrix values="0 0 0 0 0.168627 0 0 0 0 0.164706 0 0 0 0 0.156863 0 0 0 0.08 0"/><feBlend in2="BackgroundImageFix" result="effect1_dropShadow_162_3047"/><feBlend in="SourceGraphic" in2="effect1_dropShadow_162_3047" result="shape"/></filter></defs></svg>
